X:0139
M:6/8
L:1/8
Q:3/8=84
K:D
d2A Bcd|gfe fdA|d2A Bcd|gfe d3:|
ege faf|ged cBA|ege faf|edc d3:|
a2f g2e|fed cde|a2f g2e|fge d3:|

